images/Travel.svg

<svg height="512pt" viewBox="0 0 512 512" width="512pt" xmlns="http://www.w3.org/2000/svg"><path d="m132.46875 0c-38.15625 0-69.71875 29.8125-71.90625 67.875l-3.4375 60.125h-17.125c-13.21875 0-24 10.78125-24 24v64c0 13.21875 10.78125 24 24 24h10.75l-1.4375 24.75c-.875 15.25-1.3125 30.75-1.3125 46.09375v97.15625c0 19.3125 13.78125 35.46875 32 39.1875v32.8125c0 5.84375 1.6875 11.28125 4.46875 16h-60.46875c-4.40625 0-8 3.5625-8 8s3.59375 8 8 8h464c4.40625 0 8-3.5625 8-8s-3.59375-8-8-8h-60.46875c2.78125-4.71875 4.46875-10.15625 4.46875-16v-32.8125c18.21875-3.71875 32-19.875 32-39.1875v-97.15625c0-15.34375-.4375-30.84375-1.3125-46.09375l-1.4375-24.75h10.75c13.21875 0 24-10.78125 24-24v-64c0-13.21875-10.78125-24-24-24h-17.125l-3.4375-60.125c-2.1875-38.0625-33.75-67.875-71.90625-67.875zm0 16h247.0625c28.0625 0 51.5 20.71875 55.4375 48h-115.625c-.28125 0-.5.125-.75.15625-3.28125-9.375-12.125-16.15625-22.59375-16.15625h-80c-10.4375 0-19.21875 6.71875-22.53125 16.03125-.0625 0-.09375-.03125-.125-.03125h-116.28125c3.90625-27.28125 27.34375-48 55.40625-48zm83.53125 48h80c4.40625 0 8 3.59375 8 8s-3.59375 8-8 8h-80c-4.40625 0-8-3.59375-8-8s3.59375-8 8-8zm102.59375 15.84375c.25.03125.46875.15625.75.15625h116.78125l10.59375 185.65625c.125 2.4375.1875 4.875.3125 7.34375-.625.125-1.28125.1875-1.875.5l-21.34375 10.4375c-5.4375 2.65625-11.53125 4.0625-17.59375 4.0625h-7.03125c-3.71875-18.21875-19.875-32-39.1875-32s-35.46875 13.78125-39.1875 32h-214.25c-6.125 0-12.25-1.4375-17.71875-4.15625l-21.625-10.6875c-.71875-.34375-1.46875-.46875-2.21875-.59375.09375-2.28125.15625-4.625.3125-6.90625l10.5625-185.65625h117.46875c.03125 0 .0625-.03125.125-.03125 3.3125 9.3125 12.09375 16.03125 22.53125 16.03125h32v104c0 4.4375 3.59375 8 8 8s8-3.5625 8-8v-104h32c10.46875 0 19.3125-6.78125 22.59375-16.15625zm-278.59375 64.15625h16.21875l-4.59375 80h-11.625c-4.40625 0-8-3.59375-8-8v-64c0-4.40625 3.59375-8 8-8zm415.78125 0h16.21875c4.40625 0 8 3.59375 8 8v64c0 4.40625-3.59375 8-8 8h-11.625zm-199.78125 80c-4.40625 0-8 3.5625-8 8v32c0 4.4375 3.59375 8 8 8s8-3.5625 8-8v-32c0-4.4375-3.59375-8-8-8zm104 48c10.4375 0 19.21875 6.71875 22.53125 16h-45.03125c3.28125-9.28125 12.09375-16 22.5-16zm-295.6875 17.59375 17.4375 8.59375c7.65625 3.8125 16.25 5.8125 24.8125 5.8125h299.65625c8.46875 0 17-1.96875 24.625-5.71875l16.875-8.25c.15625 6.9375.28125 13.90625.28125 20.8125v97.15625c0 13.21875-10.78125 24-24 24h-336c-13.21875 0-24-10.78125-24-24v-97.15625c0-7.09375.09375-14.15625.3125-21.25zm31.6875 30.40625c-4.40625 0-8 3.5625-8 8v16c0 4.4375 3.59375 8 8 8s8-3.5625 8-8v-16c0-4.4375-3.59375-8-8-8zm40 0c-4.40625 0-8 3.5625-8 8v16c0 4.4375 3.59375 8 8 8s8-3.5625 8-8v-16c0-4.4375-3.59375-8-8-8zm40 0c-4.40625 0-8 3.5625-8 8v16c0 4.4375 3.59375 8 8 8s8-3.5625 8-8v-16c0-4.4375-3.59375-8-8-8zm40 0c-4.40625 0-8 3.5625-8 8v16c0 4.4375 3.59375 8 8 8s8-3.5625 8-8v-16c0-4.4375-3.59375-8-8-8zm40 0c-4.40625 0-8 3.5625-8 8v16c0 4.4375 3.59375 8 8 8s8-3.5625 8-8v-16c0-4.4375-3.59375-8-8-8zm40 0c-4.40625 0-8 3.5625-8 8v16c0 4.4375 3.59375 8 8 8s8-3.5625 8-8v-16c0-4.4375-3.59375-8-8-8zm40 0c-4.40625 0-8 3.5625-8 8v16c0 4.4375 3.59375 8 8 8s8-3.5625 8-8v-16c0-4.4375-3.59375-8-8-8zm40 0c-4.40625 0-8 3.5625-8 8v16c0 4.4375 3.59375 8 8 8s8-3.5625 8-8v-16c0-4.4375-3.59375-8-8-8zm40 0c-4.40625 0-8 3.5625-8 8v16c0 4.4375 3.59375 8 8 8s8-3.5625 8-8v-16c0-4.4375-3.59375-8-8-8zm-321.40625 41.125c-3.375.28125-6.59375 1.65625-9.1875 3.9375-3.4375 3.03125-5.40625 7.40625-5.40625 12v22.9375c0 8.8125 7.1875 16 16 16h48c8.8125 0 16-7.1875 16-16 0-17.71875-13.25-32.71875-30.84375-34.90625l-31.15625-3.90625c-1.15625-.15625-2.28125-.1875-3.40625-.0625zm322.8125 0c-1.125-.125-2.25-.09375-3.40625.0625l-31.15625 3.90625c-17.59375 2.1875-30.84375 17.1875-30.84375 34.90625 0 8.8125 7.1875 16 16 16h48c8.8125 0 16-7.1875 16-16v-22.9375c0-4.59375-1.96875-8.96875-5.40625-12-2.59375-2.28125-5.8125-3.65625-9.1875-3.9375zm-321.40625 15.9375 31.1875 3.90625c9.59375 1.1875 16.8125 9.375 16.8125 19.03125h-48zm320 0v22.9375h-48c0-9.65625 7.21875-17.84375 16.8125-19.03125zm-232.65625 6.9375c-4.40625 0-8 3.5625-8 8s3.59375 8 8 8h146c4.40625 0 8-3.5625 8-8s-3.59375-8-8-8zm-87.34375 64h48v32c0 8.8125-7.1875 16-16 16h-16c-8.8125 0-16-7.1875-16-16zm64 0h192v32c0 5.84375 1.6875 11.28125 4.46875 16h-200.9375c2.78125-4.71875 4.46875-10.15625 4.46875-16zm208 0h48v32c0 8.8125-7.1875 16-16 16h-16c-8.8125 0-16-7.1875-16-16zm0 0" fill="#003e6b"/></svg>

<?xml version="1.0" encoding="UTF-8"?>
<svg xmlns="http://www.w3.org/2000/svg" xmlns:xlink="http://www.w3.org/1999/xlink" width="512pt" height="512pt" viewBox="0 0 512 512" version="1.1">
<g id="surface4495774">
<path style=" stroke:none;fill-rule:nonzero;fill:rgb(0%,24.313726%,41.960785%);fill-opacity:1;" d="M 132.46875 0 C 94.3125 0 62.75 29.8125 60.5625 67.875 L 57.125 128 L 40 128 C 26.78125 128 16 138.78125 16 152 L 16 216 C 16 229.21875 26.78125 240 40 240 L 50.75 240 L 49.3125 264.75 C 48.4375 280 48 295.5 48 310.84375 L 48 408 C 48 427.3125 61.78125 443.46875 80 447.1875 L 80 480 C 80 485.84375 81.6875 491.28125 84.46875 496 L 24 496 C 19.59375 496 16 499.5625 16 504 C 16 508.4375 19.59375 512 24 512 L 488 512 C 492.40625 512 496 508.4375 496 504 C 496 499.5625 492.40625 496 488 496 L 427.53125 496 C 430.3125 491.28125 432 485.84375 432 480 L 432 447.1875 C 450.21875 443.46875 464 427.3125 464 408 L 464 310.84375 C 464 295.5 463.5625 280 462.6875 264.75 L 461.25 240 L 472 240 C 485.21875 240 496 229.21875 496 216 L 496 152 C 496 138.78125 485.21875 128 472 128 L 454.875 128 L 451.4375 67.875 C 449.25 29.8125 417.6875 0 379.53125 0 Z M 132.46875 16 L 379.53125 16 C 407.59375 16 431.03125 36.71875 434.96875 64 L 319.34375 64 C 319.0625 64 318.84375 64.125 318.59375 64.15625 C 315.3125 54.78125 306.46875 48 296 48 L 216 48 C 205.5625 48 196.78125 54.71875 193.46875 64.03125 C 193.40625 64.03125 193.375 64 193.34375 64 L 77.0625 64 C 80.96875 36.71875 104.40625 16 132.46875 16 Z M 216 64 L 296 64 C 300.40625 64 304 67.59375 304 72 C 304 76.40625 300.40625 80 296 80 L 216 80 C 211.59375 80 208 76.40625 208 72 C 208 67.59375 211.59375 64 216 64 Z M 318.59375 79.84375 C 318.84375 79.875 319.0625 80 319.34375 80 L 436.125 80 L 446.71875 265.65625 C 446.84375 268.09375 446.90625 270.53125 447.03125 273 C 446.40625 273.125 445.75 273.1875 445.15625 273.5 L 423.8125 283.9375 C 418.375 286.59375 412.28125 288 406.21875 288 L 399.1875 288 C 395.46875 269.78125 379.3125 256 360 256 C 340.6875 256 324.53125 269.78125 320.8125 288 L 106.5625 288 C 100.4375 288 94.3125 286.5625 88.84375 283.84375 L 67.21875 273.15625 C 66.5 272.8125 65.75 272.6875 65 272.5625 C 65.09375 270.28125 65.15625 267.9375 65.3125 265.65625 L 75.875 80 L 193.34375 80 C 193.375 80 193.40625 79.96875 193.46875 79.96875 C 196.78125 89.28125 205.5625 96 216 96 L 248 96 L 248 200 C 248 204.4375 251.59375 208 256 208 C 260.40625 208 264 204.4375 264 200 L 264 96 L 296 96 C 306.46875 96 315.3125 89.21875 318.59375 79.84375 Z M 40 144 L 56.21875 144 L 51.625 224 L 40 224 C 35.59375 224 32 220.40625 32 216 L 32 152 C 32 147.59375 35.59375 144 40 144 Z M 455.78125 144 L 472 144 C 476.40625 144 480 147.59375 480 152 L 480 216 C 480 220.40625 476.40625 224 472 224 L 460.375 224 Z M 256 224 C 251.59375 224 248 227.5625 248 232 L 248 264 C 248 268.4375 251.59375 272 256 272 C 260.40625 272 264 268.4375 264 264 L 264 232 C 264 227.5625 260.40625 224 256 224 Z M 360 272 C 370.4375 272 379.21875 278.71875 382.53125 288 L 337.5 288 C 340.78125 278.71875 349.59375 272 360 272 Z M 64.3125 289.59375 L 81.75 298.1875 C 89.40625 302 98 304 106.5625 304 L 406.21875 304 C 414.6875 304 423.21875 302.03125 430.84375 298.28125 L 447.71875 290.03125 C 447.875 296.96875 448 303.9375 448 310.84375 L 448 408 C 448 421.21875 437.21875 432 424 432 L 88 432 C 74.78125 432 64 421.21875 64 408 L 64 310.84375 C 64 303.75 64.09375 296.6875 64.3125 289.59375 Z M 96 320 C 91.59375 320 88 323.5625 88 328 L 88 344 C 88 348.4375 91.59375 352 96 352 C 100.40625 352 104 348.4375 104 344 L 104 328 C 104 323.5625 100.40625 320 96 320 Z M 136 320 C 131.59375 320 128 323.5625 128 328 L 128 344 C 128 348.4375 131.59375 352 136 352 C 140.40625 352 144 348.4375 144 344 L 144 328 C 144 323.5625 140.40625 320 136 320 Z M 176 320 C 171.59375 320 168 323.5625 168 328 L 168 344 C 168 348.4375 171.59375 352 176 352 C 180.40625 352 184 348.4375 184 344 L 184 328 C 184 323.5625 180.40625 320 176 320 Z M 216 320 C 211.59375 320 208 323.5625 208 328 L 208 344 C 208 348.4375 211.59375 352 216 352 C 220.40625 352 224 348.4375 224 344 L 224 328 C 224 323.5625 220.40625 320 216 320 Z M 256 320 C 251.59375 320 248 323.5625 248 328 L 248 344 C 248 348.4375 251.59375 352 256 352 C 260.40625 352 264 348.4375 264 344 L 264 328 C 264 323.5625 260.40625 320 256 320 Z M 296 320 C 291.59375 320 288 323.5625 288 328 L 288 344 C 288 348.4375 291.59375 352 296 352 C 300.40625 352 304 348.4375 304 344 L 304 328 C 304 323.5625 300.40625 320 296 320 Z M 336 320 C 331.59375 320 328 323.5625 328 328 L 328 344 C 328 348.4375 331.59375 352 336 352 C 340.40625 352 344 348.4375 344 344 L 344 328 C 344 323.5625 340.40625 320 336 320 Z M 376 320 C 371.59375 320 368 323.5625 368 328 L 368 344 C 368 348.4375 371.59375 352 376 352 C 380.40625 352 384 348.4375 384 344 L 384 328 C 384 323.5625 380.40625 320 376 320 Z M 416 320 C 411.59375 320 408 323.5625 408 328 L 408 344 C 408 348.4375 411.59375 352 416 352 C 420.40625 352 424 348.4375 424 344 L 424 328 C 424 323.5625 420.40625 320 416 320 Z M 94.59375 361.125 C 91.21875 361.40625 88 362.78125 85.40625 365.0625 C 81.96875 368.09375 80 372.46875 80 377.0625 L 80 400 C 80 408.8125 87.1875 416 96 416 L 144 416 C 152.8125 416 160 408.8125 160 400 C 160 382.28125 146.75 367.28125 129.15625 365.09375 L 98 361.1875 C 96.84375 361.03125 95.71875 361 94.59375 361.125 Z M 417.40625 361.125 C 416.28125 361 415.15625 361.03125 414 361.1875 L 382.84375 365.09375 C 365.25 367.28125 352 382.28125 352 400 C 352 408.8125 359.1875 416 368 416 L 416 416 C 424.8125 416 432 408.8125 432 400 L 432 377.0625 C 432 372.46875 430.03125 368.09375 426.59375 365.0625 C 424 362.78125 420.78125 361.40625 417.40625 361.125 Z M 96 377.0625 L 127.1875 380.96875 C 136.78125 382.15625 144 390.34375 144 400 L 96 400 Z M 416 377.0625 L 416 400 L 368 400 C 368 390.34375 375.21875 382.15625 384.8125 380.96875 Z M 183.34375 384 C 178.9375 384 175.34375 387.5625 175.34375 392 C 175.34375 396.4375 178.9375 400 183.34375 400 L 329.34375 400 C 333.75 400 337.34375 396.4375 337.34375 392 C 337.34375 387.5625 333.75 384 329.34375 384 Z M 96 448 L 144 448 L 144 480 C 144 488.8125 136.8125 496 128 496 L 112 496 C 103.1875 496 96 488.8125 96 480 Z M 160 448 L 352 448 L 352 480 C 352 485.84375 353.6875 491.28125 356.46875 496 L 155.53125 496 C 158.3125 491.28125 160 485.84375 160 480 Z M 368 448 L 416 448 L 416 480 C 416 488.8125 408.8125 496 400 496 L 384 496 C 375.1875 496 368 488.8125 368 480 Z M 368 448 "/>
</g>
</svg>
